X: 301
T: Aldrige Hornpipe
R: hornpipe, reel
M: 2/4
L: 1/8
Z: 2012 John Chambers <jc:trillian.mit.edu>
B: J. Anderson "Budget of Strathspeys, Reels and Country Dances" (Early 1800s) p.30 #1
F: http://imslp.org/wiki/Anderson%27s_Budget_of_Strathspeys,_Reels_and_Country_Dances_(Various)
K: C
[|\
(cB).c.G | (EG).c.e | (dc).B.A | (GB).d.e | (fe).d.c | (BA)(fe) | (dc)(BA) Gfed |
(cB).c.G | (EG).c.e | dcBA GBdf | egec | dfdB | c2c2 | c4 |]
(ge).e.c | (ce).e.g | (af).f.d | (df).f.a | (ge).e.c | (af).d.c | .B.c.A.B |.G.f.e.d |
(cB).c.G | (EG).c.e | (dc).B.A | G2f2 | (eg).e.c | (df).d.B | c2c2 | c4 |]

%%sep 2 1 500
%%sep 1 1 500

